CameraAppSwiftUI/LUTs/kodak.cube
#Created by: Adobe Photoshop Export Color Lookup Plugin
#Copyright: (C) Copyright 2018 https://www.presetpro.com and Tim Martin
TITLE "Presetpro - Kodak Color"
#LUT size
LUT_3D_SIZE 5
#data domain
#LUT data points
DOMAIN_MIN 0.000000 0.000000 0.000000
DOMAIN_MAX 0.903226 0.903226 0.903226
0.008484 0.007874 0.007263
0.262878 0.014587 0.004974
0.525299 0.000000 0.000000
0.674347 0.000000 0.000000
0.794983 0.000000 0.000000
0.011719 0.162689 0.012451
0.203186 0.193451 0.009277
0.474152 0.227936 0.000000
0.691254 0.238434 0.000000
0.852539 0.241699 0.000000
0.050842 0.382202 0.006989
0.233856 0.416779 0.000031
0.503387 0.463898 0.000000
0.727142 0.490906 0.000000
0.899261 0.503693 0.000000
0.127869 0.594513 0.015289
0.285370 0.623322 0.006439
0.534515 0.664612 0.000000
0.747040 0.693634 0.000000
0.919250 0.709900 0.000000
0.207397 0.786896 0.070892
0.345367 0.807129 0.071747
0.573975 0.840271 0.069611
0.763245 0.864075 0.071442
0.928772 0.880127 0.074524
0.002747 0.009338 0.177948
0.234924 0.015411 0.201691
0.507446 0.000000 0.210815
0.677521 0.000000 0.212494
0.808716 0.000000 0.216858
0.000397 0.169342 0.170105
0.194733 0.197662 0.189911
0.491730 0.212250 0.185181
0.722015 0.202271 0.173492
0.887726 0.187622 0.168152
0.018738 0.396271 0.199371
0.199921 0.442596 0.198517
0.516266 0.488708 0.201111
0.757202 0.500427 0.183289
0.936676 0.499268 0.173553
0.110992 0.613434 0.230591
0.251373 0.664490 0.213165
0.533844 0.704437 0.212433
0.773743 0.732819 0.210724
0.953491 0.736176 0.200684
0.198029 0.804901 0.271759
0.308624 0.854675 0.244904
0.566772 0.885742 0.244781
0.779449 0.909729 0.247559
0.960602 0.924011 0.252747
0.001801 0.000000 0.371307
0.218628 0.000427 0.418060
0.489227 0.000000 0.444824
0.675507 0.000000 0.453796
0.819794 0.000000 0.459961
0.000000 0.188171 0.395630
0.172455 0.196777 0.447906
0.499664 0.222229 0.485626
0.731750 0.209625 0.484009
0.898743 0.193878 0.477722
0.000000 0.422150 0.437164
0.174835 0.468140 0.481354
0.492706 0.491302 0.489960
0.741638 0.499451 0.488708
0.924988 0.495758 0.483643
0.083282 0.639252 0.470734
0.236145 0.690277 0.492188
0.502136 0.709717 0.490723
0.752411 0.736633 0.502747
0.936768 0.738800 0.497162
0.183929 0.827454 0.501862
0.297089 0.878052 0.505707
0.536163 0.892914 0.498840
0.756287 0.915680 0.509247
0.942322 0.929657 0.517151
0.006073 0.000000 0.535706
0.226379 0.000000 0.592529
0.489624 0.000000 0.626495
0.682800 0.000000 0.639771
0.833405 0.000000 0.648041
0.000000 0.203735 0.589264
0.176239 0.194702 0.651123
0.495605 0.216339 0.694458
0.740326 0.219910 0.710419
0.907471 0.204437 0.706512
0.000000 0.442261 0.642517
0.149139 0.469086 0.695251
0.482361 0.487213 0.711365
0.743103 0.508850 0.729309
0.926056 0.504425 0.726013
0.068787 0.659149 0.678802
0.229126 0.707855 0.724915
0.500977 0.723724 0.729340
0.736328 0.734192 0.729431
0.922729 0.735474 0.725403
0.177155 0.845123 0.704346
0.292145 0.895203 0.733063
0.529724 0.907288 0.731171
0.738037 0.916840 0.728607
0.926697 0.930115 0.735535
0.019135 0.001953 0.690491
0.244202 0.002106 0.742126
0.499298 0.000000 0.776062
0.695923 0.000000 0.791626
0.849121 0.000000 0.801392
0.000000 0.225311 0.748047
0.192505 0.204590 0.808655
0.496185 0.224640 0.848450
0.738251 0.230530 0.867035
0.916107 0.231598 0.874695
0.000000 0.460632 0.804382
0.159973 0.470764 0.855255
0.482666 0.485657 0.872498
0.736633 0.505646 0.890228
0.928467 0.514374 0.898071
0.081329 0.674286 0.841064
0.220032 0.707733 0.888458
0.499237 0.720642 0.894501
0.727997 0.729523 0.896942
0.922821 0.741272 0.903931
0.181580 0.857635 0.863586
0.297791 0.906158 0.907013
0.535492 0.915924 0.908051
0.738251 0.922913 0.906494
0.915558 0.925903 0.903229
