CameraAppSwiftUI/LUTs/kodak.cube
#Created by: Adobe Photoshop Export Color Lookup Plugin
#Copyright: (C) Copyright 2018 https://www.presetpro.com and Tim Martin
TITLE "Presetpro - Kodak Color"
#LUT size
LUT_3D_SIZE 32
#data domain
DOMAIN_MIN 0.0 0.0 0.0
DOMAIN_MAX 1.0 1.0 1.0
#LUT data points
0.008484 0.007874 0.007263
0.025177 0.008118 0.007111
0.044434 0.008942 0.007385
0.076080 0.010834 0.007751
0.116425 0.013031 0.007904
0.161346 0.015015 0.007599
0.211304 0.015778 0.006592
0.262878 0.014587 0.004974
0.314392 0.011536 0.002899
0.363434 0.007080 0.000824
0.406097 0.001587 0.000092
0.442535 0.000336 0.000000
0.473053 0.000000 0.000000
0.500854 0.000000 0.000000
0.525299 0.000000 0.000000
0.548920 0.000000 0.000000
0.571075 0.000000 0.000000
0.592834 0.000000 0.000000
0.613464 0.000000 0.000000
0.633881 0.000000 0.000000
0.654236 0.000000 0.000000
0.674347 0.000000 0.000000
0.694305 0.000000 0.000000
0.712128 0.000000 0.000000
0.729828 0.000000 0.000000
0.746613 0.000000 0.000000
0.762787 0.000000 0.000000
0.778900 0.000000 0.000000
0.794983 0.000000 0.000000
0.811096 0.000000 0.000000
0.827240 0.000000 0.000000
0.843475 0.000000 0.000000
0.008423 0.022980 0.007172
0.024445 0.023560 0.007324
0.041656 0.023743 0.007568
0.064636 0.024994 0.007874
0.096039 0.026978 0.008209
0.134827 0.029083 0.008148
0.175049 0.031219 0.007874
0.217773 0.032715 0.007172
0.264771 0.032318 0.005829
0.310394 0.031006 0.004181
0.353210 0.029175 0.002747
0.394745 0.025482 0.001556
0.431458 0.023438 0.001007
0.467072 0.021606 0.000000
0.496368 0.020081 0.000000
0.522003 0.019531 0.000000
0.548706 0.017273 0.000000
0.572876 0.016144 0.000000
0.597931 0.014587 0.000000
0.621429 0.012939 0.000000
0.643097 0.012543 0.000000
0.664734 0.012512 0.000000
0.685272 0.012512 0.000000
0.705872 0.012573 0.000000
0.725311 0.012573 0.000000
0.744598 0.012573 0.000000
0.764191 0.012512 0.000000
0.782013 0.012512 0.000000
0.800446 0.012512 0.000000
0.817078 0.012573 0.000000
0.834137 0.012482 0.000000
0.850433 0.012512 0.000000
0.008942 0.038544 0.007782
0.024475 0.039307 0.007751
0.041382 0.040253 0.007935
0.062012 0.041046 0.008179
0.086853 0.042786 0.008423
0.116699 0.044952 0.008606
0.153015 0.047699 0.008545
0.190552 0.050537 0.008270
0.229065 0.052795 0.007782
0.270874 0.054260 0.006775
0.312744 0.054962 0.005493
0.352722 0.054230 0.004089
0.391266 0.051880 0.002502
0.430298 0.048645 0.000885
0.467010 0.045837 0.000000
0.496735 0.042725 0.000000
0.525116 0.039429 0.000000
0.553009 0.036682 0.000000
0.580963 0.032867 0.000000
0.607697 0.029572 0.000000
0.632935 0.027039 0.000000
0.655273 0.026581 0.000000
0.677002 0.026367 0.000000
0.698761 0.026215 0.000000
0.720398 0.026062 0.000000
0.741974 0.026001 0.000000
0.763489 0.025970 0.000000
0.784851 0.025818 0.000000
0.804352 0.025726 0.000000
0.823242 0.025726 0.000000
0.840546 0.026123 0.000000
0.857788 0.026215 0.000000
0.009705 0.057892 0.009094
0.025604 0.059631 0.008606
0.042389 0.060547 0.008759
0.064728 0.062866 0.009003
0.089386 0.064819 0.009216
0.118439 0.067596 0.009338
0.152893 0.071350 0.009247
0.189758 0.074951 0.008972
0.227386 0.078278 0.008453
0.266174 0.081573 0.007477
0.308502 0.083740 0.006134
0.349609 0.085114 0.004639
0.387360 0.085205 0.003021
0.425598 0.084534 0.001129
0.463806 0.082397 0.000122
0.498688 0.079346 0.000000
0.527924 0.077271 0.000000
0.555939 0.074066 0.000000
0.583740 0.070679 0.000000
0.611420 0.067657 0.000000
0.637787 0.063721 0.000000
0.662506 0.061493 0.000000
0.684692 0.060120 0.000000
0.706329 0.059143 0.000000
0.727875 0.057770 0.000000
0.749390 0.057129 0.000000
0.770782 0.055573 0.000000
0.792175 0.055237 0.000000
0.813110 0.054077 0.000000
0.832886 0.053894 0.000000
0.852051 0.053711 0.000000
0.869476 0.054413 0.000000
0.010345 0.080414 0.010071
0.026550 0.082733 0.009491
0.043732 0.084137 0.009644
0.066162 0.086853 0.009827
0.092224 0.090424 0.009979
0.121185 0.093750 0.010071
0.155487 0.098145 0.009888
0.191589 0.102814 0.009460
0.228729 0.106934 0.008881
0.266907 0.110962 0.007782
0.308167 0.114868 0.006287
0.350067 0.117584 0.004608
0.388947 0.119354 0.002838
0.426270 0.120361 0.001160
0.464172 0.120392 0.000153
0.501617 0.119843 0.000000
0.533173 0.118591 0.000000
0.561493 0.117432 0.000000
0.588989 0.115967 0.000000
0.616394 0.114380 0.000000
0.643829 0.112183 0.000000
0.670197 0.110413 0.000000
0.694366 0.108795 0.000000
0.716156 0.107300 0.000000
0.737579 0.106506 0.000000
0.759003 0.105042 0.000000
0.780334 0.104309 0.000000
0.801636 0.103241 0.000000
0.822876 0.102020 0.000000
0.844025 0.101410 0.000000
0.864380 0.100739 0.000000
0.884094 0.101501 0.000000
0.010529 0.106628 0.011017
0.027618 0.109314 0.010406
0.045074 0.111115 0.010559
0.067993 0.114197 0.010681
0.094299 0.117981 0.010803
0.124664 0.122498 0.010742
0.158966 0.127167 0.010437
0.195129 0.132202 0.009918
0.232178 0.137115 0.009125
0.269867 0.141602 0.007874
0.310425 0.146149 0.006226
0.352356 0.150360 0.004211
0.391815 0.153412 0.002197
0.429810 0.155731 0.000793
0.467010 0.157379 0.000000
0.505127 0.158508 0.000000
0.538910 0.159027 0.000000
0.569122 0.159027 0.000000
0.596558 0.158875 0.000000
0.623840 0.158630 0.000000
0.651062 0.158142 0.000000
0.678375 0.157715 0.000000
0.704071 0.156952 0.000000
0.727509 0.156616 0.000000
0.748962 0.156403 0.000000
0.770325 0.156342 0.000000
0.791534 0.156006 0.000000
0.812714 0.156036 0.000000
0.833923 0.155884 0.000000
0.855042 0.155945 0.000000
0.876068 0.156097 0.000000
0.896210 0.156372 0.000000
0.011078 0.134857 0.011810
0.030487 0.138092 0.011108
0.048431 0.140167 0.011261
0.070435 0.143433 0.011200
0.096985 0.147430 0.011230
0.127502 0.152222 0.010986
0.162842 0.157806 0.010437
0.199036 0.163055 0.009705
0.236206 0.168488 0.008698
0.273895 0.173767 0.007111
0.313873 0.178802 0.005310
0.355255 0.183563 0.003113
0.395813 0.187775 0.000732
0.433594 0.191010 0.000488
0.470734 0.193481 0.000000
0.508240 0.195648 0.000000
0.544647 0.197388 0.000000
0.576569 0.198242 0.000000
0.603943 0.198761 0.000000
0.631104 0.199402 0.000000
0.658234 0.199707 0.000000
0.685303 0.199951 0.000000
0.712311 0.199921 0.000000
0.737823 0.199982 0.000000
0.759430 0.200317 0.000000
0.780731 0.200317 0.000000
0.801910 0.200836 0.000000
0.822998 0.200928 0.000000
0.844086 0.201416 0.000000
0.865112 0.201691 0.000000
0.886108 0.202057 0.000000
0.906921 0.202667 0.000000
0.011719 0.162689 0.012451
0.031586 0.166168 0.011810
0.052338 0.168884 0.011810
0.074371 0.172272 0.011688
0.099548 0.176331 0.011505
0.130493 0.181335 0.011108
0.166168 0.187164 0.010345
0.203186 0.193451 0.009277
0.240295 0.199097 0.008057
0.277802 0.204742 0.006287
0.317169 0.210388 0.004120
0.358185 0.215851 0.002106
0.398834 0.220703 0.000336
0.437195 0.224670 0.000031
0.474152 0.227936 0.000000
0.511230 0.230774 0.000000
0.548492 0.233215 0.000000
0.581696 0.234924 0.000000
0.610260 0.235992 0.000000
0.637299 0.237030 0.000000
0.664246 0.237793 0.000000
0.691254 0.238434 0.000000
0.718140 0.239166 0.000000
0.744598 0.239594 0.000000
0.768158 0.240082 0.000000
0.789459 0.240570 0.000000
0.810547 0.240753 0.000000
0.831573 0.241425 0.000000
0.852539 0.241699 0.000000
0.873444 0.242371 0.000000
0.894348 0.242645 0.000000
0.915192 0.243469 0.000000
0.013000 0.191803 0.012726
0.035065 0.195343 0.011963
0.056305 0.198334 0.011932
0.079498 0.202057 0.011597
0.104126 0.206146 0.011353
0.134003 0.211182 0.010681
0.169952 0.217163 0.009796
0.207214 0.223602 0.008575
0.244659 0.229919 0.006989
0.281921 0.235779 0.005066
0.321045 0.241730 0.002747
0.361389 0.247650 0.000458
0.402039 0.253052 0.000061
0.440430 0.257538 0.000000
0.477844 0.261505 0.000000
0.514313 0.264801 0.000000
0.551788 0.267883 0.000000
0.585938 0.270386 0.000000
0.615326 0.272034 0.000000
0.643127 0.273438 0.000000
0.669891 0.274536 0.000000
0.696747 0.275604 0.000000
0.723541 0.276642 0.000000
0.750244 0.277618 0.000000
0.774841 0.278259 0.000000
0.797485 0.278870 0.000000
0.818481 0.279297 0.000000
0.839447 0.280090 0.000000
0.860382 0.280640 0.000000
0.881226 0.281281 0.000000
0.901978 0.281830 0.000000
0.922760 0.282410 0.000000
0.015015 0.221802 0.012695
0.038269 0.225311 0.011963
0.061249 0.228516 0.011719
0.084656 0.232330 0.011230
0.108276 0.236389 0.010834
0.137207 0.241425 0.009979
0.174316 0.247925 0.008636
0.211761 0.254547 0.007111
0.249298 0.261047 0.005280
0.286530 0.267242 0.002930
0.325256 0.273376 0.001740
0.365326 0.279419 0.000183
0.405487 0.285278 0.000061
0.443817 0.290253 0.000000
0.481598 0.294617 0.000000
0.517639 0.298248 0.000000
0.554504 0.301880 0.000000
0.589203 0.304688 0.000000
0.620422 0.306854 0.000000
0.648438 0.308685 0.000000
0.675140 0.310089 0.000000
0.701782 0.311371 0.000000
0.728424 0.312744 0.000000
0.755035 0.313873 0.000000
0.781433 0.314972 0.000000
0.804565 0.315796 0.000000
0.825684 0.316437 0.000000
0.846619 0.317261 0.000000
0.867523 0.317871 0.000000
0.888336 0.318939 0.000000
0.909088 0.319611 0.000000
0.929840 0.320557 0.000000
0.018829 0.252960 0.012177
0.043365 0.256683 0.011475
0.067535 0.260193 0.011108
0.091034 0.264099 0.010468
0.114655 0.268524 0.009857
0.141907 0.273468 0.008881
0.178101 0.279968 0.007385
0.217102 0.287079 0.005432
0.254425 0.293701 0.003265
0.291718 0.300110 0.001312
0.330414 0.306641 0.000061
0.370056 0.312988 0.000000
0.409882 0.319061 0.000000
0.448486 0.324524 0.000000
0.486206 0.329346 0.000000
0.522003 0.333344 0.000000
0.558441 0.337189 0.000000
0.593445 0.340515 0.000000
0.625824 0.343384 0.000000
0.654297 0.345398 0.000000
0.680908 0.347137 0.000000
0.707428 0.348633 0.000000
0.733887 0.350220 0.000000
0.760437 0.351624 0.000000
0.786896 0.353058 0.000000
0.811523 0.354279 0.000000
0.833344 0.355225 0.000000
0.854187 0.356049 0.000000
0.875031 0.356903 0.000000
0.895752 0.357880 0.000000
0.916473 0.358704 0.000000
0.937164 0.359711 0.000000
0.024597 0.284851 0.011353
0.050140 0.288666 0.010590
0.074982 0.292603 0.010071
0.098389 0.296722 0.009186
0.122070 0.301331 0.008453
0.148376 0.306458 0.007202
0.182526 0.312805 0.005585
0.221161 0.319977 0.003448
0.259613 0.326935 0.001160
0.297058 0.333527 0.000641
0.335754 0.340240 0.000031
0.375366 0.346893 0.000000
0.414612 0.353210 0.000000
0.452911 0.358978 0.000000
0.491272 0.364502 0.000000
0.526733 0.368835 0.000000
0.562988 0.373047 0.000000
0.597748 0.376862 0.000000
0.630981 0.380188 0.000000
0.660095 0.382812 0.000000
0.686859 0.384674 0.000000
0.713287 0.386536 0.000000
0.739655 0.388214 0.000000
0.766052 0.390137 0.000000
0.792511 0.391754 0.000000
0.817657 0.393311 0.000000
0.840820 0.394501 0.000000
0.861847 0.395660 0.000000
0.882629 0.396637 0.000000
0.903290 0.397552 0.000000
0.923889 0.398499 0.000000
0.944489 0.399567 0.000000
0.031250 0.316589 0.010590
0.057037 0.320862 0.009674
0.082764 0.325134 0.008759
0.106201 0.329468 0.007690
0.129730 0.334229 0.006622
0.155243 0.339386 0.005188
0.185883 0.345490 0.003937
0.225616 0.352875 0.001831
0.264954 0.360077 0.000427
0.302643 0.366943 0.000000
0.341309 0.373901 0.000000
0.380829 0.380798 0.000000
0.419342 0.387360 0.000000
0.457367 0.393402 0.000000
0.495483 0.399170 0.000000
0.531403 0.404114 0.000000
0.567261 0.408569 0.000000
0.602142 0.412598 0.000000
0.635590 0.416351 0.000000
0.664764 0.419189 0.000000
0.692444 0.421661 0.000000
0.718781 0.423798 0.000000
0.744995 0.425751 0.000000
0.771332 0.427612 0.000000
0.797577 0.429504 0.000000
0.823120 0.431213 0.000000
0.847717 0.432922 0.000000
0.868652 0.433899 0.000000
0.889404 0.435089 0.000000
0.910004 0.436127 0.000000
0.930542 0.437134 0.000000
0.951050 0.438202 0.000000
0.040741 0.349792 0.008545
0.065857 0.354126 0.007355
0.091339 0.358521 0.006348
0.114471 0.362823 0.005096
0.137939 0.367676 0.003876
0.161957 0.372742 0.002350
0.190674 0.378662 0.000885
0.230194 0.385925 0.000122
0.270447 0.393250 0.000000
0.308197 0.399994 0.000000
0.347015 0.406952 0.000000
0.386322 0.413849 0.000000
0.424072 0.420197 0.000000
0.461700 0.426361 0.000000
0.499420 0.432159 0.000000
0.535431 0.437225 0.000000
0.571320 0.441925 0.000000
0.606049 0.446320 0.000000
0.639465 0.450073 0.000000
0.668854 0.453339 0.000000
0.696808 0.455933 0.000000
0.723175 0.458099 0.000000
0.749268 0.460236 0.000000
0.775482 0.462341 0.000000
0.801605 0.464172 0.000000
0.827667 0.466125 0.000000
0.852478 0.467773 0.000000
0.874023 0.469147 0.000000
0.894684 0.470215 0.000000
0.915222 0.471344 0.000000
0.935760 0.472687 0.000000
0.956207 0.473694 0.000000
0.050842 0.382202 0.006989
0.075470 0.386444 0.005768
0.100494 0.390778 0.004639
0.123413 0.394928 0.003357
0.146667 0.399628 0.002167
0.169647 0.404419 0.001465
0.195160 0.409821 0.000244
0.233856 0.416779 0.000031
0.275848 0.424225 0.000000
0.313721 0.431091 0.000000
0.352539 0.438141 0.000000
0.391937 0.445251 0.000000
0.428436 0.451569 0.000000
0.465759 0.457794 0.000000
0.503387 0.463898 0.000000
0.539246 0.469177 0.000000
0.575226 0.473969 0.000000
0.609650 0.478485 0.000000
0.642975 0.482452 0.000000
0.672211 0.485626 0.000000
0.700836 0.488586 0.000000
0.727142 0.490906 0.000000
0.753113 0.493134 0.000000
0.779053 0.495087 0.000000
0.805084 0.497223 0.000000
0.830994 0.499146 0.000000
0.856415 0.501190 0.000000
0.878296 0.502472 0.000000
0.899261 0.503693 0.000000
0.919769 0.504822 0.000000
0.940216 0.506134 0.000000
0.960632 0.507141 0.000000
0.061646 0.412842 0.006134
0.085846 0.417236 0.004852
0.110168 0.421600 0.003571
0.132812 0.425812 0.002258
0.155609 0.430481 0.000977
0.177734 0.435150 0.000488
0.200562 0.440125 0.000000
0.239716 0.447083 0.000000
0.281647 0.454468 0.000000
0.319641 0.461273 0.000000
0.357880 0.468231 0.000000
0.397003 0.475281 0.000000
0.433105 0.481537 0.000000
0.469940 0.487732 0.000000
0.507263 0.493835 0.000000
0.543335 0.499268 0.000000
0.578918 0.504272 0.000000
0.613037 0.508789 0.000000
0.646118 0.512848 0.000000
0.675354 0.516205 0.000000
0.704407 0.519470 0.000000
0.730591 0.521912 0.000000
0.756378 0.524139 0.000000
0.782227 0.526398 0.000000
0.808044 0.528503 0.000000
0.833893 0.530701 0.000000
0.859100 0.532654 0.000000
0.881866 0.534332 0.000000
0.903320 0.535706 0.000000
0.923767 0.536957 0.000000
0.944153 0.538239 0.000000
0.964478 0.539459 0.000000
0.072876 0.443207 0.006104
0.096161 0.447479 0.004761
0.120270 0.451996 0.003540
0.141693 0.455902 0.002319
0.164246 0.460480 0.001129
0.185852 0.465027 0.000519
0.207825 0.469910 0.000000
0.245544 0.476624 0.000000
0.287689 0.483978 0.000000
0.325684 0.490753 0.000000
0.364105 0.497711 0.000000
0.402039 0.504578 0.000000
0.437805 0.510864 0.000000
0.474243 0.517090 0.000000
0.511169 0.523315 0.000000
0.547211 0.528839 0.000000
0.582764 0.534088 0.000000
0.616302 0.538513 0.000000
0.649109 0.542786 0.000000
0.678253 0.546265 0.000000
0.707367 0.549713 0.000000
0.733795 0.552216 0.000000
0.759460 0.554657 0.000000
0.785156 0.556946 0.000000
0.810913 0.559265 0.000000
0.836578 0.561493 0.000000
0.861847 0.563599 0.000000
0.885162 0.565308 0.000000
0.906891 0.566833 0.000000
0.927307 0.568115 0.000000
0.947601 0.569397 0.000000
0.967926 0.570740 0.000000
0.084167 0.473450 0.006378
0.107147 0.477722 0.005096
0.130310 0.482056 0.003815
0.151550 0.486145 0.002625
0.172791 0.490448 0.001495
0.194244 0.494934 0.000580
0.216003 0.499756 0.000000
0.253113 0.506348 0.000000
0.294098 0.513489 0.000000
0.332031 0.520172 0.000000
0.369690 0.526978 0.000000
0.407043 0.533722 0.000000
0.442444 0.539917 0.000000
0.478638 0.546173 0.000000
0.515472 0.552399 0.000000
0.551300 0.558014 0.000000
0.586578 0.563263 0.000000
0.619873 0.567841 0.000000
0.652039 0.572083 0.000000
0.680939 0.575592 0.000000
0.710052 0.579102 0.000000
0.736511 0.581879 0.000000
0.762390 0.584320 0.000000
0.787964 0.586731 0.000000
0.813538 0.589111 0.000000
0.839172 0.591309 0.000000
0.864288 0.593506 0.000000
0.887939 0.595520 0.000000
0.910217 0.597290 0.000000
0.930542 0.598572 0.000000
0.950775 0.599823 0.000000
0.970337 0.601013 0.000000
0.095459 0.504333 0.007233
0.117157 0.508270 0.005981
0.139679 0.512543 0.004730
0.160553 0.516602 0.003479
0.181671 0.520813 0.002289
0.202911 0.525208 0.001099
0.224426 0.529907 0.000000
0.260284 0.536255 0.000000
0.300873 0.543243 0.000000
0.338959 0.549896 0.000000
0.376129 0.556580 0.000000
0.412170 0.563049 0.000000
0.447540 0.569275 0.000000
0.483368 0.575531 0.000000
0.519867 0.581787 0.000000
0.555725 0.587524 0.000000
0.590820 0.592804 0.000000
0.623291 0.597321 0.000000
0.655060 0.601593 0.000000
0.683746 0.605194 0.000000
0.712677 0.608856 0.000000
0.739624 0.611755 0.000000
0.765381 0.614349 0.000000
0.790802 0.616669 0.000000
0.816254 0.619110 0.000000
0.841736 0.621460 0.000000
0.866821 0.623749 0.000000
0.890839 0.625732 0.000000
0.913147 0.627472 0.000000
0.933655 0.628998 0.000000
0.953827 0.630402 0.000000
0.972656 0.631622 0.000000
0.106323 0.535248 0.008759
0.127625 0.539246 0.007568
0.149200 0.543304 0.006439
0.169922 0.547363 0.005249
0.190887 0.551514 0.004120
0.211853 0.555847 0.002747
0.233154 0.560516 0.001648
0.268250 0.566650 0.000000
0.307892 0.573395 0.000000
0.345673 0.579895 0.000000
0.382660 0.586487 0.000000
0.417633 0.592712 0.000000
0.452698 0.598877 0.000000
0.488434 0.605133 0.000000
0.524719 0.611176 0.000000
0.560211 0.616730 0.000000
0.595245 0.621826 0.000000
0.627014 0.626160 0.000000
0.657990 0.630219 0.000000
0.686493 0.633789 0.000000
0.715179 0.637268 0.000000
0.742096 0.640259 0.000000
0.768188 0.642883 0.000000
0.793365 0.645294 0.000000
0.818726 0.647614 0.000000
0.843994 0.649841 0.000000
0.868988 0.652161 0.000000
0.893097 0.654297 0.000000
0.915527 0.656036 0.000000
0.936127 0.657471 0.000000
0.956177 0.658813 0.000000
0.974426 0.660065 0.000000
0.116638 0.566162 0.011108
0.137787 0.570282 0.009918
0.158997 0.574341 0.008728
0.179565 0.578308 0.007538
0.200195 0.582153 0.006531
0.221161 0.586182 0.005402
0.242371 0.590454 0.004303
0.276611 0.596130 0.002167
0.315277 0.602356 0.000671
0.352081 0.608276 0.000000
0.388519 0.614410 0.000000
0.423309 0.620300 0.000000
0.458160 0.626190 0.000000
0.493500 0.632141 0.000000
0.529510 0.638153 0.000000
0.564819 0.643768 0.000000
0.599518 0.648926 0.000000
0.630737 0.653229 0.000000
0.660889 0.657227 0.000000
0.689026 0.660797 0.000000
0.717560 0.664429 0.000000
0.744568 0.667419 0.000000
0.770752 0.670135 0.000000
0.795837 0.672607 0.000000
0.820953 0.675018 0.000000
0.846161 0.677521 0.000000
0.871002 0.679688 0.000000
0.895142 0.681793 0.000000
0.917542 0.683655 0.000000
0.938354 0.685181 0.000000
0.957825 0.686584 0.000000
0.975952 0.687927 0.000000
0.127869 0.594513 0.015289
0.148621 0.598389 0.014282
0.169708 0.602234 0.013275
0.189972 0.605835 0.012238
0.210510 0.609680 0.011230
0.231079 0.613647 0.010101
0.252075 0.617889 0.008972
0.285370 0.623322 0.006439
0.323578 0.629486 0.003174
0.360046 0.635315 0.001099
0.394745 0.641083 0.000000
0.429230 0.646912 0.000458
0.463776 0.652771 0.000671
0.498779 0.658661 0.000031
0.534515 0.664612 0.000000
0.569733 0.670227 0.000000
0.604004 0.675354 0.000000
0.634003 0.679474 0.000000
0.663513 0.683380 0.000000
0.691650 0.686920 0.000000
0.719696 0.690430 0.000000
0.747040 0.693634 0.000000
0.773102 0.696411 0.000000
0.798035 0.698792 0.000000
0.823029 0.701263 0.000000
0.848022 0.703674 0.000000
0.872803 0.705841 0.000000
0.896912 0.708130 0.000000
0.919250 0.709900 0.000000
0.940277 0.711670 0.000000
0.959167 0.712952 0.000000
0.977264 0.714325 0.000000
0.139313 0.622070 0.020294
0.159882 0.625885 0.019653
0.180573 0.629669 0.018921
0.200592 0.633301 0.018280
0.220764 0.636963 0.017578
0.241119 0.640869 0.016846
0.261841 0.645081 0.016144
0.295166 0.650421 0.013916
0.330444 0.655914 0.011627
0.366394 0.661560 0.009033
0.400818 0.667267 0.007446
0.435211 0.673065 0.006470
0.469452 0.678833 0.003876
0.504242 0.684692 0.001282
0.539612 0.690552 0.000092
0.574463 0.696106 0.000000
0.608582 0.701263 0.000000
0.638367 0.705292 0.000000
0.666412 0.708954 0.000153
0.694092 0.712524 0.000366
0.722046 0.716034 0.000366
0.749176 0.719208 0.000214
0.775482 0.722168 0.000244
0.800232 0.724518 0.000000
0.825073 0.726990 0.000000
0.849976 0.729431 0.000000
0.874573 0.731812 0.000000
0.898651 0.734009 0.000000
0.920959 0.735901 0.000000
0.942047 0.737610 0.000000
0.960480 0.738861 0.000366
0.978546 0.740295 0.000366
0.150665 0.649567 0.028534
0.170868 0.653198 0.028015
0.191193 0.656860 0.027374
0.210999 0.660339 0.026764
0.230988 0.663910 0.026154
0.251190 0.667725 0.025391
0.271637 0.671753 0.024689
0.304962 0.676941 0.022461
0.339264 0.682007 0.020508
0.373352 0.687164 0.018616
0.407349 0.692719 0.016785
0.441681 0.698456 0.014709
0.475494 0.704193 0.012512
0.510010 0.709930 0.010010
0.544952 0.715729 0.007294
0.579285 0.721191 0.007355
0.612396 0.726166 0.005737
0.641266 0.730103 0.005035
0.668976 0.733765 0.004791
0.696503 0.737305 0.003815
0.724335 0.740845 0.002899
0.751495 0.744141 0.002258
0.777679 0.747009 0.001099
0.802307 0.749512 0.000549
0.827026 0.752106 0.000000
0.851776 0.754578 0.000000
0.876343 0.756958 0.000000
0.900238 0.759094 0.000000
0.922485 0.761047 0.000000
0.943726 0.762756 0.000000
0.961823 0.764374 0.000610
0.979767 0.765594 0.001068
0.162140 0.677094 0.036804
0.182007 0.680573 0.036438
0.202148 0.684082 0.035919
0.221741 0.687469 0.035583
0.241333 0.690887 0.035034
0.260895 0.694397 0.034760
0.281158 0.698273 0.034149
0.312958 0.702881 0.032928
0.346863 0.707764 0.031525
0.380585 0.712799 0.029968
0.414368 0.718262 0.028381
0.448273 0.723877 0.026642
0.481781 0.729462 0.024658
0.515930 0.735107 0.022217
0.550537 0.740814 0.019562
0.584229 0.746155 0.016998
0.616394 0.750916 0.014648
0.644684 0.754761 0.013519
0.671692 0.758301 0.013000
0.699097 0.761871 0.012512
0.726654 0.765381 0.012207
0.753815 0.768738 0.011841
0.779999 0.771759 0.011414
0.804382 0.774170 0.011047
0.828949 0.776642 0.010742
0.853577 0.779144 0.010986
0.877930 0.781494 0.011475
0.901733 0.783691 0.011993
0.923828 0.785675 0.013367
0.945068 0.787415 0.013977
0.963013 0.789001 0.015656
0.980957 0.790253 0.016541
0.173798 0.704590 0.045166
0.193512 0.708008 0.044922
0.213318 0.711395 0.044617
0.232697 0.714630 0.044342
0.252045 0.717957 0.044067
0.271271 0.721283 0.043854
0.290344 0.724701 0.043732
0.321045 0.728943 0.042969
0.355042 0.733643 0.041931
0.388184 0.738525 0.040833
0.421448 0.743805 0.039764
0.455078 0.749359 0.038269
0.488434 0.754822 0.036713
0.522217 0.760345 0.035217
0.556335 0.765930 0.033295
0.589661 0.771149 0.031189
0.619720 0.775513 0.030212
0.647644 0.779266 0.029327
0.674561 0.782776 0.029022
0.701569 0.786316 0.028961
0.728973 0.789856 0.028839
0.756104 0.793213 0.028687
0.782104 0.796234 0.028625
0.806549 0.798706 0.028320
0.830933 0.801208 0.028137
0.855438 0.803528 0.027985
0.879639 0.805969 0.028198
0.903229 0.808258 0.028687
0.925201 0.810242 0.030060
0.946350 0.811829 0.031647
0.964294 0.813416 0.033325
0.982147 0.814880 0.034912
0.185699 0.732147 0.053558
0.204681 0.735321 0.053558
0.224152 0.738556 0.053314
0.241882 0.741394 0.053406
0.261078 0.744598 0.053192
0.279053 0.747559 0.053345
0.297882 0.750732 0.053192
0.329132 0.754883 0.052704
0.363342 0.759491 0.052002
0.396423 0.764374 0.051178
0.429260 0.769531 0.050385
0.462402 0.774933 0.049530
0.495300 0.780273 0.048645
0.528809 0.785736 0.047455
0.562317 0.791168 0.046204
0.594849 0.796173 0.044861
0.623901 0.800354 0.044220
0.650787 0.803894 0.043945
0.677490 0.807373 0.043762
0.704315 0.810852 0.043701
0.731384 0.814331 0.043854
0.758484 0.817688 0.043793
0.784485 0.820740 0.043823
0.808716 0.823181 0.043823
0.833038 0.825653 0.043610
0.857300 0.828125 0.043884
0.881317 0.830292 0.043945
0.904602 0.832611 0.044617
0.926483 0.834442 0.045624
0.947571 0.836395 0.047363
0.965424 0.837799 0.048676
0.983276 0.839294 0.050232
0.197723 0.759766 0.062012
0.216339 0.762817 0.062042
0.234863 0.765778 0.062073
0.252289 0.768463 0.062225
0.269836 0.771149 0.062347
0.287537 0.774017 0.062500
0.305573 0.776917 0.062622
0.337524 0.780975 0.062225
0.372131 0.785583 0.061707
0.405029 0.790405 0.061218
0.437012 0.795319 0.060730
0.469879 0.800598 0.060059
0.502380 0.805847 0.059387
0.535400 0.811127 0.058746
0.568573 0.816467 0.057831
