CameraAppSwiftUI/LUTs/kodak.cube
#Created by: Adobe Photoshop Export Color Lookup Plugin
#Copyright: (C) Copyright 2018 https://www.presetpro.com and Tim Martin
TITLE "Presetpro - Kodak Color"
#LUT size
LUT_3D_SIZE 8
#data domain
#LUT data points
DOMAIN_MIN 0.000000 0.000000 0.000000
DOMAIN_MAX 0.903226 0.903226 0.903226
0.008484 0.007874 0.007263
0.116425 0.013031 0.007904
0.314392 0.011536 0.002899
0.473053 0.000000 0.000000
0.571075 0.000000 0.000000
0.654236 0.000000 0.000000
0.729828 0.000000 0.000000
0.794983 0.000000 0.000000
0.010345 0.080414 0.010071
0.092224 0.090424 0.009979
0.228729 0.106934 0.008881
0.388947 0.119354 0.002838
0.533173 0.118591 0.000000
0.643829 0.112183 0.000000
0.737579 0.106506 0.000000
0.822876 0.102020 0.000000
0.013000 0.191803 0.012726
0.104126 0.206146 0.011353
0.244659 0.229919 0.006989
0.402039 0.253052 0.000061
0.551788 0.267883 0.000000
0.669891 0.274536 0.000000
0.774841 0.278259 0.000000
0.860382 0.280640 0.000000
0.031250 0.316589 0.010590
0.129730 0.334229 0.006622
0.264954 0.360077 0.000427
0.419342 0.387360 0.000000
0.567261 0.408569 0.000000
0.692444 0.421661 0.000000
0.797577 0.429504 0.000000
0.889404 0.435089 0.000000
0.072876 0.443207 0.006104
0.164246 0.460480 0.001129
0.287689 0.483978 0.000000
0.437805 0.510864 0.000000
0.582764 0.534088 0.000000
0.707367 0.549713 0.000000
0.810913 0.559265 0.000000
0.906891 0.566833 0.000000
0.116638 0.566162 0.011108
0.200195 0.582153 0.006531
0.315277 0.602356 0.000671
0.458160 0.626190 0.000000
0.599518 0.648926 0.000000
0.717560 0.664429 0.000000
0.820953 0.675018 0.000000
0.917542 0.683655 0.000000
0.162140 0.677094 0.036804
0.241333 0.690887 0.035034
0.346863 0.707764 0.031525
0.481781 0.729462 0.024658
0.616394 0.750916 0.014648
0.726654 0.765381 0.012207
0.828949 0.776642 0.010742
0.923828 0.785675 0.013367
0.207397 0.786896 0.070892
0.277924 0.797668 0.071594
0.380737 0.811646 0.071320
0.509827 0.830750 0.070190
0.631500 0.848053 0.069519
0.736572 0.860962 0.071075
0.836945 0.871704 0.072327
0.928772 0.880127 0.074524
0.005615 0.009369 0.086639
0.119354 0.014587 0.095428
0.297974 0.014252 0.099335
0.454041 0.000000 0.096405
0.567841 0.000000 0.093506
0.656952 0.000000 0.092865
0.736481 0.000000 0.094208
0.803833 0.000000 0.098694
0.007568 0.079254 0.079834
0.088959 0.087799 0.083557
0.232880 0.096069 0.080231
0.402130 0.096252 0.070374
0.553314 0.079956 0.057587
0.671143 0.058075 0.049225
0.767792 0.044556 0.045105
0.851746 0.035645 0.043030
0.007782 0.191986 0.091370
0.095673 0.212952 0.088287
0.250549 0.237152 0.089294
0.416199 0.250610 0.075256
0.576691 0.256073 0.055878
0.701691 0.253021 0.044464
0.807007 0.247345 0.037872
0.897095 0.241028 0.034058
0.020111 0.319275 0.102814
0.115051 0.352142 0.090302
0.260895 0.377533 0.086853
0.435455 0.405731 0.075623
0.594971 0.418060 0.052826
0.724854 0.421600 0.039337
0.835815 0.421112 0.032104
0.928314 0.418152 0.027527
0.062378 0.450592 0.114166
0.145905 0.488922 0.091400
0.272858 0.511810 0.086670
0.446564 0.540375 0.073853
0.611877 0.564301 0.058380
0.739716 0.570953 0.042664
0.851624 0.573517 0.031006
0.947815 0.573120 0.023163
0.107849 0.574585 0.129486
0.181763 0.616821 0.099884
0.291382 0.635986 0.096313
0.460846 0.661530 0.089264
0.622162 0.686127 0.080627
0.749390 0.700043 0.074615
0.860962 0.704254 0.058472
0.957642 0.705444 0.049744
0.156311 0.686829 0.150848
0.223358 0.733673 0.118073
0.318176 0.749054 0.116913
0.480621 0.772278 0.114746
0.630707 0.794891 0.112274
0.753662 0.810089 0.112152
0.868988 0.820709 0.110260
0.963654 0.822235 0.101562
0.202850 0.795898 0.176636
0.258453 0.842194 0.143921
0.355194 0.854187 0.143616
0.506622 0.873749 0.141968
0.639374 0.891235 0.142395
0.757874 0.904816 0.143646
0.871796 0.916412 0.145081
0.967529 0.922699 0.145264
0.002289 0.008453 0.207306
0.104614 0.012512 0.219543
0.274780 0.013123 0.239014
0.438751 0.000183 0.246948
0.561310 0.000000 0.249512
0.655609 0.000000 0.250854
0.739594 0.000000 0.252533
0.810120 0.000000 0.255554
0.001404 0.086700 0.191284
0.075531 0.087921 0.210205
0.235596 0.102173 0.228943
0.407623 0.100372 0.231323
0.560760 0.081940 0.228699
0.680634 0.058655 0.225159
0.778137 0.043976 0.221954
0.861694 0.034180 0.219788
0.000000 0.203339 0.205963
0.085754 0.225952 0.227203
0.235687 0.238251 0.231781
0.406799 0.249603 0.231720
0.570831 0.252930 0.226929
0.698792 0.248505 0.221008
0.804932 0.241821 0.216705
0.896118 0.234863 0.213989
0.000122 0.331543 0.223389
0.101044 0.365387 0.235046
0.236145 0.378693 0.235840
0.421234 0.405029 0.242371
0.586334 0.415741 0.235596
0.717865 0.417938 0.228271
0.830292 0.416351 0.222534
0.923889 0.412781 0.219025
0.040771 0.464447 0.241638
0.132324 0.503479 0.243134
0.236450 0.515808 0.242096
0.428284 0.542053 0.244873
0.600525 0.565735 0.246552
0.729980 0.571442 0.238281
0.844299 0.573181 0.231506
0.941650 0.572266 0.226837
0.093506 0.588104 0.260010
0.171387 0.631287 0.253021
0.266235 0.641907 0.250031
0.440338 0.664520 0.250977
0.608276 0.688599 0.252655
0.738251 0.702271 0.253052
0.851959 0.705872 0.245789
0.949799 0.706421 0.240692
0.148041 0.700592 0.281281
0.216309 0.747864 0.267334
0.298187 0.755371 0.263062
0.459930 0.775238 0.262970
0.616058 0.797363 0.264160
0.741638 0.812103 0.266235
0.859009 0.822571 0.267456
0.954803 0.823456 0.262634
0.195770 0.808289 0.306030
0.252197 0.854675 0.286407
0.329773 0.859436 0.280579
0.487213 0.876740 0.280426
0.625275 0.894073 0.282440
0.745361 0.907166 0.285004
0.860870 0.918457 0.288544
0.958038 0.924866 0.291748
0.001434 0.002838 0.320282
0.102356 0.004120 0.341095
0.262207 0.002258 0.367004
0.427307 0.000000 0.381226
0.552307 0.000000 0.386932
0.653015 0.000000 0.390289
0.739594 0.000000 0.393097
0.816254 0.000000 0.396118
0.000000 0.092407 0.318542
0.064850 0.084015 0.350983
0.232178 0.094330 0.379578
0.414581 0.098389 0.400269
0.567261 0.077148 0.402618
0.688019 0.055023 0.400757
0.785492 0.038849 0.397797
0.869934 0.028290 0.395081
0.000000 0.215363 0.338623
0.062836 0.229187 0.372498
0.222168 0.238983 0.385681
0.408386 0.257904 0.404449
0.573853 0.259857 0.407013
0.703552 0.254700 0.405762
0.809937 0.247559 0.403503
0.901978 0.240417 0.401276
0.000000 0.345764 0.359344
0.078247 0.380524 0.393890
0.216003 0.391876 0.401855
0.407471 0.405426 0.405914
0.575958 0.414551 0.406891
0.709717 0.415771 0.404480
0.824158 0.413635 0.401978
0.918457 0.409515 0.399719
0.008148 0.479584 0.380371
0.111938 0.519257 0.403015
0.223541 0.530609 0.407990
0.409302 0.544891 0.408234
0.587067 0.567505 0.417053
0.719025 0.572449 0.414124
0.835297 0.573792 0.411224
0.933899 0.572388 0.408478
0.073212 0.602722 0.398895
0.157166 0.647003 0.411591
0.253723 0.656982 0.413513
0.418182 0.668854 0.411438
0.591705 0.691742 0.419281
0.725616 0.705200 0.423889
0.841339 0.708435 0.420288
0.940521 0.708771 0.417175
0.137543 0.715088 0.416656
0.206696 0.762848 0.420776
0.287079 0.769653 0.420105
0.437439 0.779358 0.415680
0.600128 0.800842 0.422455
0.727753 0.814880 0.427612
0.847412 0.825226 0.431274
0.944489 0.825897 0.427887
0.187531 0.820618 0.434784
0.244568 0.868011 0.431641
0.319916 0.872650 0.429474
0.466400 0.881195 0.424072
0.609528 0.898224 0.429901
0.731567 0.910889 0.434723
0.848846 0.921814 0.439545
0.947601 0.928131 0.443146
0.002930 0.000000 0.420776
0.108307 0.000000 0.448883
0.258392 0.000000 0.478271
0.418854 0.000000 0.496307
0.548309 0.000000 0.505157
0.654053 0.000000 0.510437
0.741913 0.000000 0.514252
0.824280 0.000000 0.518646
0.000000 0.096405 0.435577
0.061188 0.076721 0.475739
0.233093 0.083496 0.508545
0.413605 0.084869 0.531830
0.573212 0.073700 0.544678
0.694611 0.052521 0.544067
0.792328 0.035156 0.541595
0.878967 0.024384 0.539337
0.000000 0.225555 0.464050
0.049377 0.229858 0.506836
0.215607 0.237061 0.524078
0.403503 0.254089 0.545471
0.577850 0.264893 0.559937
0.707428 0.259125 0.559204
0.813843 0.251709 0.556458
0.906189 0.244385 0.553131
0.000000 0.358429 0.489471
0.056366 0.383240 0.532440
0.197968 0.392578 0.543915
0.397491 0.403870 0.552551
0.577637 0.422180 0.567078
0.710907 0.422363 0.566193
0.825378 0.419525 0.563293
0.920074 0.414886 0.559479
0.000000 0.493256 0.512939
0.092926 0.533325 0.553864
0.213501 0.543182 0.561371
0.403870 0.555450 0.565735
0.575256 0.566864 0.568665
0.709320 0.571014 0.567596
0.826569 0.571808 0.565338
0.926300 0.569977 0.561920
0.054871 0.616608 0.532104
0.146667 0.661407 0.563416
0.246643 0.669891 0.567261
0.408966 0.680145 0.567963
0.577637 0.692871 0.569031
0.714325 0.705933 0.575684
0.831268 0.708679 0.572998
0.931549 0.708679 0.569855
0.129974 0.729095 0.550140
0.198395 0.777100 0.572327
0.279663 0.782837 0.573242
0.425903 0.791504 0.571899
0.585815 0.803009 0.570557
0.715057 0.816406 0.577454
0.836243 0.826599 0.582184
0.934418 0.826935 0.579193
0.180176 0.833527 0.566681
0.237823 0.881256 0.579285
0.313354 0.885345 0.578400
0.456177 0.892822 0.574829
0.594604 0.901581 0.572296
0.718445 0.913818 0.578461
0.837006 0.924377 0.584167
0.937225 0.930664 0.587860
0.005127 0.000000 0.512695
0.118286 0.000000 0.545319
0.261749 0.000000 0.574890
0.417450 0.000000 0.595154
0.549194 0.000000 0.606293
0.658325 0.000000 0.613403
0.747314 0.000000 0.618317
0.831726 0.000000 0.623047
0.000000 0.102020 0.538605
0.065002 0.071991 0.584320
0.236633 0.076385 0.619354
0.414490 0.078400 0.643921
0.573639 0.069275 0.658478
0.702454 0.055145 0.665985
0.800415 0.035126 0.663879
0.888763 0.024048 0.661652
0.000000 0.235077 0.571869
0.041534 0.230743 0.616943
0.217224 0.236023 0.636078
0.402740 0.251770 0.660858
0.575226 0.262207 0.678192
0.711731 0.265411 0.687073
0.818085 0.257904 0.685089
0.910461 0.250549 0.682007
0.000000 0.369446 0.602234
0.044189 0.384613 0.646851
0.197784 0.392120 0.658936
0.393494 0.401642 0.670135
0.572144 0.419189 0.686676
0.712982 0.428040 0.695648
0.827057 0.424927 0.694611
0.921844 0.420105 0.692078
0.000000 0.504181 0.628296
0.069977 0.535248 0.671844
0.202271 0.543427 0.679504
0.396545 0.554047 0.685913
0.567932 0.564636 0.691132
0.709839 0.576355 0.699158
0.826904 0.576752 0.697906
0.926208 0.574646 0.695251
0.044312 0.627686 0.648285
0.144043 0.671967 0.690735
0.244690 0.679047 0.695160
0.408203 0.688110 0.697693
0.576691 0.699036 0.699982
0.705933 0.704163 0.699493
0.823151 0.706360 0.697571
0.923981 0.705688 0.694580
0.128174 0.739777 0.664185
0.195190 0.787262 0.698425
0.277283 0.792053 0.699890
0.423096 0.799835 0.700073
0.582611 0.809448 0.700012
0.705566 0.815033 0.699249
0.827393 0.824799 0.703979
0.926270 0.824890 0.700806
0.177460 0.842987 0.677765
0.235840 0.890717 0.703613
0.311737 0.894409 0.704132
0.453003 0.901306 0.702362
0.590179 0.908295 0.700226
0.708435 0.914062 0.698944
0.827698 0.924194 0.703949
0.928680 0.930328 0.707001
0.009460 0.000000 0.602112
0.130585 0.000000 0.636200
0.269318 0.000000 0.664185
0.420929 0.000000 0.684998
0.553253 0.000000 0.697205
0.664124 0.000000 0.705017
0.753723 0.000000 0.710449
0.840118 0.000000 0.716034
0.000000 0.112000 0.633850
0.074097 0.077087 0.679199
0.241669 0.082794 0.711487
0.416840 0.086761 0.736542
0.574188 0.081879 0.751556
0.704132 0.072601 0.760651
0.808502 0.062805 0.765442
0.898804 0.047089 0.764069
0.000000 0.246155 0.671143
0.036499 0.233917 0.713623
0.222321 0.238037 0.732269
0.404968 0.253204 0.756256
0.573883 0.263245 0.772552
0.709930 0.267700 0.781952
0.822449 0.268494 0.786774
0.914642 0.261108 0.784729
0.000000 0.380402 0.703369
0.035675 0.386536 0.746490
0.207245 0.392487 0.758423
0.393951 0.400970 0.770966
0.568756 0.417084 0.786743
0.709808 0.426758 0.796112
0.829376 0.431580 0.801270
0.923981 0.426636 0.798981
0.000000 0.514130 0.729584
0.060547 0.536469 0.772614
0.198730 0.543213 0.780212
0.395233 0.552460 0.788513
0.563232 0.561920 0.795471
0.705902 0.574249 0.804718
0.828186 0.581390 0.809937
0.926819 0.579071 0.807709
0.043945 0.636993 0.749481
0.137238 0.673187 0.792145
0.238098 0.679077 0.796631
0.406189 0.687134 0.800781
0.571747 0.696991 0.805237
0.700684 0.701965 0.807007
0.823425 0.710480 0.812225
0.923523 0.709686 0.810425
0.129639 0.748718 0.765503
0.196198 0.795288 0.806152
0.278412 0.799377 0.808167
0.429230 0.806458 0.809967
0.583069 0.814636 0.811829
0.704987 0.818726 0.811798
0.820068 0.821777 0.811554
0.919220 0.821747 0.809814
0.177551 0.850983 0.778046
0.237213 0.898041 0.811188
0.313049 0.901154 0.811737
0.457886 0.907684 0.811798
0.589905 0.913635 0.811432
0.707153 0.918182 0.810669
0.819946 0.922760 0.810669
0.921356 0.928802 0.813965
0.019135 0.001953 0.690491
0.144775 0.002045 0.722687
0.280243 0.001862 0.748230
0.428192 0.000000 0.768707
0.560669 0.000000 0.781494
0.671570 0.000000 0.789948
0.763000 0.000000 0.795959
0.849121 0.000000 0.801392
0.000000 0.125031 0.722809
0.086151 0.089447 0.770874
0.247314 0.095917 0.800659
0.420166 0.100616 0.825684
0.576233 0.099304 0.840698
0.705261 0.095032 0.849762
0.811340 0.091370 0.855682
0.906891 0.088867 0.859467
0.000000 0.258850 0.757080
0.042389 0.239807 0.801666
0.230347 0.243530 0.819885
0.409637 0.257874 0.843689
0.573669 0.267181 0.859833
0.707703 0.271545 0.869476
0.821594 0.273987 0.875793
0.918884 0.274658 0.879211
0.000000 0.392548 0.789520
0.026276 0.390137 0.834351
0.220276 0.394623 0.845123
0.398102 0.402374 0.857605
0.567719 0.417328 0.873260
0.706665 0.426605 0.882935
0.826965 0.432709 0.889435
0.926361 0.435425 0.892761
0.000000 0.523773 0.816620
0.062653 0.538116 0.861694
0.205078 0.543457 0.868073
0.398956 0.551544 0.875793
0.561890 0.559937 0.882446
0.702820 0.571686 0.891510
0.824982 0.579712 0.897705
0.928009 0.583740 0.900909
0.057343 0.646088 0.836945
0.135529 0.674072 0.882477
0.235840 0.678619 0.885925
0.409607 0.685638 0.889648
0.569916 0.694214 0.893707
0.697113 0.698761 0.895111
0.819519 0.707916 0.900879
0.924133 0.712982 0.903839
0.135193 0.756378 0.852142
0.192596 0.795868 0.896454
0.274170 0.798950 0.898315
0.432770 0.805237 0.900360
0.579620 0.812195 0.901886
0.701141 0.815887 0.901550
0.815308 0.818726 0.901062
0.919128 0.824127 0.903778
0.181580 0.857635 0.863586
0.241730 0.904419 0.906677
0.317841 0.906982 0.907379
0.467773 0.913025 0.907837
0.592346 0.917786 0.907837
0.709290 0.921936 0.906830
0.819641 0.924957 0.905273
0.915558 0.925903 0.903229
