CameraAppSwiftUI/LUTs/teal_orange.cube
LUT_3D_SIZE 16
0.065805 0.070008 0.074371
0.077419 0.069916 0.073520
0.112865 0.069916 0.073520
0.160339 0.069916 0.073520
0.215870 0.069916 0.073520
0.274193 0.069916 0.073520
0.336262 0.069916 0.073520
0.399835 0.069916 0.073520
0.465271 0.069917 0.073521
0.531287 0.069917 0.073521
0.596020 0.069917 0.073521
0.660502 0.069917 0.073521
0.723035 0.069917 0.073521
0.783380 0.069917 0.073521
0.842940 0.069917 0.073521
0.898759 0.069917 0.073521
0.059765 0.082992 0.071215
0.076901 0.081675 0.072171
0.112865 0.082444 0.073520
0.160339 0.083257 0.073520
0.215870 0.084381 0.073520
0.274193 0.085238 0.073520
0.336262 0.086135 0.073520
0.399835 0.086899 0.073520
0.465271 0.087614 0.073521
0.531287 0.088209 0.073521
0.596020 0.088592 0.073521
0.660502 0.088899 0.073521
0.723035 0.089052 0.073521
0.783380 0.089065 0.073521
0.842940 0.089042 0.073521
0.898759 0.088861 0.073521
0.027476 0.122365 0.050005
0.062303 0.121366 0.052861
0.112717 0.118933 0.069381
0.160339 0.121247 0.073520
0.215870 0.124701 0.073520
0.274193 0.127303 0.073520
0.336262 0.130008 0.073520
0.399835 0.132252 0.073520
0.465271 0.134320 0.073521
0.531287 0.136033 0.073521
0.596020 0.137165 0.073521
0.660502 0.138024 0.073521
0.723035 0.138462 0.073521
0.783380 0.138487 0.073521
0.842940 0.138429 0.073521
0.898759 0.137892 0.073521
-0.075391 0.175989 -0.065721
-0.051496 0.175314 -0.063255
0.101670 0.172665 -0.044588
0.161148 0.169933 0.062050
0.215870 0.174364 0.073520
0.274193 0.178663 0.073520
0.336262 0.183082 0.073520
0.399835 0.186756 0.073521
0.465271 0.190122 0.073521
0.531287 0.192913 0.073521
0.596020 0.194745 0.073521
0.660502 0.196132 0.073521
0.723035 0.196850 0.073521
0.783380 0.196892 0.073521
0.842940 0.196801 0.073521
0.898759 0.195941 0.073521
-0.118081 0.236610 -0.113256
-0.106349 0.236137 -0.112000
0.054274 0.234148 -0.105182
0.154579 0.230656 -0.083806
0.215860 0.227596 0.045548
0.274193 0.232938 0.073520
0.336262 0.239013 0.073521
0.399835 0.244041 0.073521
0.465271 0.248680 0.073521
0.531287 0.252491 0.073521
0.596020 0.254993 0.073521
0.660502 0.256905 0.073521
0.723035 0.257860 0.073521
0.783380 0.257921 0.073521
0.842940 0.257803 0.073521
0.898759 0.256615 0.073521
-0.158230 0.301319 -0.155074
-0.150160 0.300937 -0.154208
-0.105882 0.299392 -0.149892
0.127373 0.296469 -0.138950
0.212438 0.292564 -0.112244
0.275062 0.289993 -0.039992
0.336262 0.296058 0.073521
0.399835 0.302408 0.073521
0.465271 0.308281 0.073521
0.531287 0.313092 0.073521
0.596020 0.316254 0.073521
0.660502 0.318671 0.073521
0.723035 0.319883 0.073521
0.783380 0.319959 0.073521
0.842940 0.319810 0.073521
0.898759 0.318300 0.073521
-0.198143 0.368755 -0.195860
-0.191967 0.368475 -0.195188
-0.161879 0.367255 -0.192025
0.017036 0.364786 -0.184366
0.193394 0.361194 -0.168634
0.273068 0.357241 -0.138019
0.336104 0.354355 -0.073590
0.399822 0.361266 0.072944
0.465271 0.368378 0.073521
0.531287 0.374158 0.073521
0.596020 0.378020 0.073521
0.660502 0.380912 0.073521
0.723035 0.382407 0.073521
0.783380 0.382452 0.073521
0.842940 0.382307 0.073521
0.898759 0.380484 0.073521
-0.238475 0.438588 -0.236719
-0.233497 0.438358 -0.236180
-0.210715 0.437356 -0.234023
-0.147531 0.435207 -0.227701
0.151377 0.432116 -0.217068
0.258574 0.428212 -0.197323
0.335864 0.424187 -0.162400
0.399620 0.421310 -0.099035
0.465348 0.428722 0.068956
0.531287 0.435539 0.073521
0.596020 0.439996 0.073521
0.660502 0.443405 0.073521
0.723035 0.445126 0.073521
0.783380 0.445237 0.073521
0.842940 0.445012 0.073521
0.898759 0.442902 0.073521
-0.279468 0.510450 -0.278077
-0.275305 0.510261 -0.277621
-0.256786 0.509420 -0.275912
-0.211442 0.507675 -0.271377
-0.067251 0.504875 -0.262592
0.228757 0.501294 -0.248509
0.324666 0.497123 -0.224608
0.400559 0.493118 -0.186128
0.465062 0.490297 -0.122279
0.531478 0.497116 0.058633
0.596020 0.502180 0.073521
0.660502 0.506108 0.073521
0.723035 0.508062 0.073521
0.783380 0.508175 0.073521
0.842940 0.507945 0.073521
0.898759 0.505504 0.073521
-0.320519 0.582931 -0.319361
-0.316950 0.582767 -0.318955
-0.301168 0.582012 -0.317333
-0.264935 0.580495 -0.313609
-0.185843 0.578020 -0.306362
0.171983 0.574867 -0.295877
0.300827 0.570879 -0.278088
0.390978 0.566592 -0.250767
0.465957 0.562654 -0.209050
0.531071 0.559839 -0.144290
0.596261 0.564501 0.031564
0.660502 0.568868 0.073521
0.723035 0.571083 0.073521
0.783380 0.571216 0.073521
0.842940 0.570948 0.073521
0.898759 0.568196 0.073521
-0.360613 0.654121 -0.359660
-0.357513 0.653955 -0.359298
-0.344047 0.653350 -0.358013
-0.314526 0.652092 -0.355416
-0.254462 0.649756 -0.348552
-0.097396 0.646899 -0.339545
0.259927 0.643350 -0.326382
0.369925 0.639155 -0.305673
0.456414 0.634809 -0.275184
0.530478 0.630951 -0.230751
0.595886 0.628208 -0.166876
0.660899 0.631839 -0.060870
0.723035 0.634134 0.073521
0.783380 0.634251 0.073521
0.842940 0.633965 0.073521
0.898759 0.630920 0.073521
-0.399935 0.724058 -0.399096
-0.397227 0.723995 -0.398812
-0.384891 0.723336 -0.397107
-0.359729 0.722307 -0.394982
-0.312284 0.720333 -0.390108
-0.220153 0.717753 -0.382328
0.188308 0.714412 -0.371434
0.336148 0.710501 -0.355062
0.437011 0.706198 -0.331567
0.520819 0.701900 -0.298340
0.593906 0.698181 -0.253492
0.660181 0.696080 -0.187517
0.723484 0.697488 -0.088350
0.783381 0.697495 0.073462
0.842940 0.697139 0.073521
0.898759 0.693748 0.073521
-0.438332 0.792584 -0.437582
-0.435922 0.792464 -0.437308
-0.425465 0.791959 -0.436244
-0.403013 0.790963 -0.433858
-0.363389 0.789263 -0.429912
-0.293780 0.786926 -0.423432
-0.127631 0.783872 -0.414070
0.285238 0.780272 -0.400735
0.407452 0.776096 -0.381892
0.502495 0.771757 -0.355826
0.584173 0.767437 -0.319199
0.656503 0.763799 -0.271355
0.722758 0.761918 -0.204526
0.783898 0.760763 -0.107812
0.842981 0.760172 0.070104
0.898759 0.756523 0.073525
-0.476107 0.860072 -0.475424
-0.473935 0.859989 -0.475211
-0.464263 0.859488 -0.473856
-0.443799 0.858411 -0.471134
-0.410816 0.857139 -0.468853
-0.353831 0.854995 -0.463107
-0.251317 0.852281 -0.455105
0.200097 0.848912 -0.443916
0.365646 0.845045 -0.428414
0.475585 0.840766 -0.407358
0.566722 0.836329 -0.377883
0.646114 0.832293 -0.342771
0.717941 0.828522 -0.290179
0.783372 0.825904 -0.224908
0.843571 0.823764 -0.130060
0.898884 0.819461 0.060676
-0.512394 0.925051 -0.511816
-0.510473 0.924915 -0.511624
-0.501389 0.924446 -0.510024
-0.483794 0.923563 -0.508210
-0.453920 0.922304 -0.505281
-0.406491 0.920474 -0.501046
-0.327793 0.917963 -0.494013
-0.152646 0.914915 -0.484456
0.305832 0.911311 -0.471442
0.438755 0.907250 -0.453969
0.540917 0.902975 -0.430783
0.628368 0.898612 -0.401326
0.706820 0.894330 -0.358969
0.777530 0.890752 -0.307622
0.842643 0.888299 -0.241394
0.899433 0.882632 -0.149146
-0.546613 0.986253 -0.546094
-0.544867 0.986228 -0.545864
-0.537578 0.985835 -0.545298
-0.521458 0.985002 -0.543314
-0.494233 0.983769 -0.540003
-0.452607 0.982013 -0.535724
-0.388968 0.979830 -0.530333
-0.277716 0.977015 -0.522081
0.207594 0.973728 -0.510980
0.388855 0.969943 -0.496225
0.505463 0.965925 -0.478320
0.602401 0.961555 -0.452985
0.687627 0.956980 -0.418444
0.763824 0.953122 -0.378845
0.833658 0.949620 -0.326146
0.898383 0.947111 -0.258277
0.066056 0.069857 0.086947
0.077419 0.069916 0.085621
0.112865 0.069916 0.086698
0.160339 0.069916 0.087551
0.215870 0.069916 0.088739
0.274193 0.069916 0.089638
0.336262 0.069916 0.090573
0.399835 0.069916 0.091375
0.465271 0.069917 0.092127
0.531287 0.069917 0.092755
0.596020 0.069917 0.093165
0.660502 0.069917 0.093488
0.723035 0.069917 0.093646
0.783380 0.069917 0.093661
0.842940 0.069917 0.093638
0.898759 0.069917 0.093443
0.061587 0.082225 0.087676
0.076626 0.081527 0.086605
0.112865 0.081415 0.085621
0.160339 0.081415 0.085621
0.215870 0.081415 0.085621
0.274193 0.081415 0.085621
0.336262 0.081415 0.085621
0.399835 0.081416 0.085621
0.465271 0.081416 0.085621
0.531287 0.081416 0.085621
0.596020 0.081416 0.085621
0.660502 0.081416 0.085621
0.723035 0.081416 0.085621
0.783380 0.081416 0.085621
0.842940 0.081416 0.085621
0.898759 0.081416 0.085621
-0.011299 0.122633 0.073620
0.055630 0.121863 0.072076
0.112648 0.118936 0.082550
0.160339 0.120521 0.085621
0.215870 0.123285 0.085621
0.274193 0.125371 0.085621
0.336262 0.127560 0.085621
0.399835 0.129404 0.085621
0.465271 0.131124 0.085621
0.531287 0.132546 0.085621
0.596020 0.133479 0.085621
0.660502 0.134197 0.085621
0.723035 0.134555 0.085621
0.783380 0.134567 0.085621
0.842940 0.134513 0.085621
0.898759 0.134058 0.085621
-0.079266 0.176257 -0.033372
-0.061320 0.175686 -0.038788
0.099045 0.172911 0.032937
0.161135 0.169936 0.077194
0.215870 0.173816 0.085621
0.274193 0.177721 0.085621
0.336262 0.181774 0.085621
0.399835 0.185154 0.085621
0.465271 0.188298 0.085621
0.531287 0.190887 0.085621
0.596020 0.192610 0.085621
0.660502 0.193881 0.085621
0.723035 0.194531 0.085621
0.783380 0.194562 0.085621
0.842940 0.194477 0.085621
0.898759 0.193643 0.085621
-0.120444 0.236834 -0.101579
-0.111253 0.236427 -0.103529
0.041538 0.234384 -0.096393
0.153333 0.230783 -0.071453
0.215837 0.227606 0.065415
0.274193 0.232558 0.085621
0.336262 0.238325 0.085621
0.399835 0.243117 0.085621
0.465271 0.247563 0.085621
0.531287 0.251214 0.085621
0.596020 0.253611 0.085621
0.660502 0.255438 0.085621
0.723035 0.256348 0.085621
0.783380 0.256385 0.085621
0.842940 0.256250 0.085621
0.898759 0.255083 0.085621
-0.159949 0.301485 -0.147414
-0.153793 0.301152 -0.149036
-0.111416 0.299613 -0.144920
0.124709 0.296536 -0.132728
0.211661 0.292657 -0.104914
0.275035 0.290004 0.037291
0.336262 0.295758 0.085621
0.399835 0.301900 0.085621
0.465271 0.307589 0.085621
0.531287 0.312283 0.085621
0.596020 0.315330 0.085621
0.660502 0.317648 0.085621
0.723035 0.318829 0.085621
0.783380 0.318868 0.085621
0.842940 0.318703 0.085621
0.898759 0.317215 0.085621
-0.199493 0.368931 -0.190119
-0.194947 0.368703 -0.191554
-0.165551 0.367431 -0.188544
-0.043738 0.364936 -0.180889
0.191515 0.361380 -0.164972
0.272536 0.357313 -0.132957
0.336097 0.354354 -0.057389
0.399817 0.361056 0.085234
0.465271 0.367949 0.085621
0.531287 0.373670 0.085621
0.596020 0.377371 0.085621
0.660502 0.380232 0.085621
0.723035 0.381598 0.085621
0.783380 0.381676 0.085621
0.842940 0.381445 0.085621
0.898759 0.379617 0.085621
-0.239577 0.438715 -0.232116
-0.236009 0.438511 -0.233440
-0.212967 0.437442 -0.230813
-0.151762 0.435380 -0.225074
0.147791 0.432273 -0.214447
0.257495 0.428302 -0.194202
0.335557 0.424216 -0.157987
0.399650 0.421308 -0.089286
0.465343 0.428560 0.082186
0.531287 0.435232 0.085621
0.596020 0.439582 0.085621
0.660502 0.442924 0.085621
0.723035 0.444571 0.085621
0.783380 0.444631 0.085621
0.842940 0.444416 0.085621
0.898759 0.442264 0.085621
-0.280401 0.510581 -0.274245
-0.277505 0.510401 -0.275462
-0.259222 0.509585 -0.273854
-0.214383 0.507809 -0.269288
-0.077107 0.504927 -0.260107
0.227300 0.501304 -0.245748
0.323950 0.497151 -0.221934
0.400291 0.493143 -0.182484
0.465057 0.490296 -0.115217
0.531473 0.496963 0.074545
0.596020 0.501937 0.085621
0.660502 0.505758 0.085621
0.723035 0.507682 0.085621
0.783380 0.507725 0.085621
0.842940 0.507456 0.085621
0.898759 0.505026 0.085621
-0.321305 0.583027 -0.316089
-0.318884 0.582881 -0.317212
-0.303280 0.582156 -0.315662
-0.267276 0.580615 -0.311865
-0.190398 0.578233 -0.305286
0.169065 0.574924 -0.293818
0.299645 0.570957 -0.276121
0.390476 0.566630 -0.248472
0.465752 0.562668 -0.205975
0.531066 0.559838 -0.138776
0.596268 0.564395 0.057495
0.660502 0.568662 0.085621
0.723035 0.570814 0.085621
0.783380 0.570890 0.085621
0.842940 0.570584 0.085621
0.898759 0.567814 0.085621
-0.361304 0.654213 -0.356820
-0.359213 0.654074 -0.357823
-0.345032 0.653326 -0.355756
-0.315509 0.652056 -0.353087
-0.257986 0.650005 -0.347902
-0.108716 0.647059 -0.338943
0.258168 0.643391 -0.324815
0.369073 0.639177 -0.303953
0.456029 0.634841 -0.273173
0.530362 0.630963 -0.228078
0.595888 0.628178 -0.160650
0.660874 0.631703 -0.027421
0.723035 0.633963 0.085621
0.783380 0.634025 0.085621
0.842940 0.633698 0.085621
0.898759 0.630655 0.085621
-0.400530 0.724176 -0.396606
-0.398737 0.724078 -0.397498
-0.386494 0.723435 -0.395843
-0.361464 0.722390 -0.393770
-0.314108 0.720462 -0.388754
-0.224762 0.717890 -0.382018
0.185117 0.714457 -0.370162
0.334982 0.710596 -0.353711
0.436434 0.706246 -0.330056
0.520505 0.701927 -0.296538
0.593883 0.698160 -0.249412
0.660186 0.696040 -0.181645
0.723477 0.697442 -0.076000
0.783381 0.697255 0.085585
0.842940 0.696936 0.085621
0.898759 0.693575 0.085621
-0.438865 0.792658 -0.435372
-0.437262 0.792544 -0.436199
-0.426907 0.792074 -0.435178
-0.404467 0.790976 -0.432760
-0.363674 0.789141 -0.427656
-0.295715 0.787005 -0.422233
-0.133372 0.783955 -0.412991
0.283571 0.780342 -0.399516
0.406595 0.776152 -0.380622
0.502031 0.771796 -0.354446
0.583902 0.767474 -0.317780
0.656425 0.763819 -0.269508
0.722741 0.761966 -0.203647
0.783893 0.760686 -0.098822
0.842980 0.760042 0.082984
0.898759 0.756357 0.085621
-0.476583 0.860143 -0.473476
-0.475169 0.860033 -0.474213
-0.466625 0.859724 -0.473997
-0.446280 0.858699 -0.471286
-0.410902 0.856983 -0.466651
-0.355434 0.855075 -0.462053
-0.253736 0.852302 -0.454129
0.197084 0.848986 -0.442901
0.364529 0.845042 -0.427374
0.474962 0.840814 -0.406223
0.566354 0.836375 -0.376771
0.646142 0.832216 -0.339287
0.717834 0.828516 -0.287912
0.783371 0.825897 -0.221677
0.843570 0.823697 -0.123508
0.898882 0.819382 0.075875
-0.512846 0.925119 -0.510031
-0.511583 0.925014 -0.510689
-0.503717 0.924694 -0.510318
-0.484960 0.923660 -0.507303
-0.456426 0.922538 -0.505605
-0.407836 0.920555 -0.500121
-0.329501 0.918046 -0.493103
-0.157168 0.914992 -0.483539
0.304272 0.911379 -0.470492
0.437984 0.907306 -0.453001
0.540392 0.902943 -0.429823
0.628510 0.898451 -0.398154
0.706578 0.894332 -0.357361
0.777466 0.890746 -0.305545
0.842641 0.888298 -0.238762
0.899431 0.882573 -0.143793
-0.547023 0.986318 -0.544477
-0.545872 0.986217 -0.545049
-0.538566 0.985939 -0.544553
-0.522487 0.985094 -0.542501
-0.496673 0.984009 -0.540462
-0.453748 0.982087 -0.534889
-0.390323 0.979912 -0.529486
-0.279739 0.977090 -0.521225
0.204780 0.973799 -0.510121
0.387784 0.970002 -0.495382
0.505843 0.965798 -0.475564
0.602678 0.961347 -0.449972
0.687360 0.956990 -0.417193
0.763697 0.953123 -0.377351
0.833591 0.949625 -0.324488
0.898380 0.947111 -0.255883
0.065863 0.069552 0.126691
0.078291 0.069666 0.125416
0.112865 0.069916 0.124812
0.160339 0.069916 0.127498
0.215870 0.069916 0.131130
0.274193 0.069916 0.133878
0.336262 0.069916 0.136708
0.399835 0.069916 0.139066
0.465271 0.069917 0.141247
0.531287 0.069917 0.143052
0.596020 0.069917 0.144241
0.660502 0.069917 0.145148
0.723035 0.069917 0.145601
0.783380 0.069917 0.145628
0.842940 0.069917 0.145570
0.898759 0.069917 0.145006
0.064123 0.082170 0.127921
0.076853 0.081165 0.126570
0.112865 0.081415 0.124812
0.160339 0.081415 0.126736
0.215870 0.081415 0.129640
0.274193 0.081415 0.131837
0.336262 0.081415 0.134148
0.399835 0.081416 0.136080
0.465271 0.081416 0.137885
0.531287 0.081416 0.139381
0.596020 0.081416 0.140367
0.660502 0.081416 0.141116
0.723035 0.081416 0.141494
0.783380 0.081416 0.141508
0.842940 0.081416 0.141456
0.898759 0.081416 0.140971
0.027607 0.120939 0.128951
0.057497 0.120481 0.128493
0.111318 0.118418 0.125786
0.160339 0.118268 0.124364
0.215870 0.118268 0.124364
0.274193 0.118268 0.124364
0.336262 0.118268 0.124364
0.399835 0.118268 0.124364
0.465271 0.118268 0.124364
0.531287 0.118268 0.124364
0.596020 0.118268 0.124364
0.660502 0.118268 0.124364
0.723035 0.118268 0.124364
0.783380 0.118268 0.124364
0.842940 0.118268 0.124364
0.898759 0.118268 0.124364
-0.089608 0.176708 0.113416
-0.076746 0.176345 0.111562
0.082731 0.174301 0.106078
0.160945 0.169940 0.120145
0.215870 0.171945 0.124364
0.274193 0.174334 0.124364
0.336262 0.176996 0.124364
0.399835 0.179229 0.124364
0.465271 0.181344 0.124364
0.531287 0.183103 0.124364
0.596020 0.184239 0.124364
0.660502 0.185106 0.124364
0.723035 0.185545 0.124364
0.783380 0.185524 0.124364
0.842940 0.185410 0.124364
0.898759 0.184809 0.124364
-0.128943 0.237533 0.067646
-0.121065 0.237212 0.062655
-0.064214 0.235508 0.046687
0.147378 0.231438 0.077569
0.215754 0.227599 0.114375
0.274193 0.231198 0.124364
0.336262 0.235840 0.124364
0.399835 0.239717 0.124364
0.465271 0.243373 0.124364
0.531287 0.246398 0.124364
0.596020 0.248353 0.124364
0.660502 0.249844 0.124364
0.723035 0.250561 0.124364
0.783380 0.250523 0.124364
0.842940 0.250358 0.124364
0.898759 0.249299 0.124364
-0.166659 0.302103 -0.102686
-0.161027 0.301845 -0.105796
-0.129941 0.300543 -0.114087
0.109412 0.297387 -0.099802
0.208620 0.292966 -0.043976
0.274999 0.289966 0.105513
0.336262 0.294728 0.124364
0.399835 0.300026 0.124364
0.465271 0.305016 0.124364
0.531287 0.309140 0.124364
0.596020 0.311826 0.124364
0.660502 0.313859 0.124364
0.723035 0.314823 0.124364
0.783380 0.314790 0.124364
0.842940 0.314542 0.124364
0.898759 0.313110 0.124364
-0.204934 0.369473 -0.161167
-0.200629 0.369296 -0.163157
-0.178854 0.368268 -0.169233
-0.087694 0.365702 -0.161382
0.184423 0.361869 -0.143034
0.270617 0.357493 -0.100076
0.336045 0.354346 0.088992
0.399803 0.360273 0.124297
0.465271 0.366485 0.124364
0.531287 0.371678 0.124364
0.596020 0.375014 0.124364
0.660502 0.377526 0.124364
0.723035 0.378768 0.124364
0.783380 0.378679 0.124364
0.842940 0.378395 0.124364
0.898759 0.376587 0.124364
-0.244100 0.439180 -0.210295
-0.240678 0.439015 -0.211896
-0.223820 0.438143 -0.216935
-0.167549 0.436085 -0.211550
0.133387 0.432755 -0.199636
0.253590 0.428538 -0.176387
0.334208 0.424331 -0.134048
0.399609 0.421304 0.056843
0.465324 0.427924 0.122846
0.531287 0.434057 0.124364
0.596020 0.438023 0.124364
0.660502 0.441049 0.124364
0.723035 0.442522 0.124364
0.783380 0.442440 0.124364
0.842940 0.442110 0.124364
0.898759 0.439956 0.124364
-0.284270 0.510962 -0.256657
-0.281434 0.510841 -0.258032
-0.267843 0.510082 -0.262516
-0.224965 0.508325 -0.258150
-0.109679 0.505472 -0.249397
0.219303 0.501809 -0.234957
0.321070 0.497415 -0.208309
0.399321 0.493213 -0.163591
0.465032 0.490292 -0.067204
0.531451 0.496443 0.118916
0.596020 0.501014 0.124364
0.660502 0.504528 0.124364
0.723035 0.506195 0.124364
0.783380 0.506089 0.124364
0.842940 0.505718 0.124364
0.898759 0.503240 0.124364
-0.324645 0.583394 -0.301359
-0.322285 0.583242 -0.302582
-0.311395 0.582687 -0.307105
-0.276593 0.581160 -0.303500
-0.203293 0.578687 -0.296583
0.155086 0.575282 -0.284588
0.295011 0.571244 -0.266338
0.388359 0.566823 -0.237013
0.464996 0.562727 -0.190304
0.531043 0.559896 -0.106989
0.596250 0.563955 0.111507
0.660502 0.567920 0.124364
0.723035 0.569828 0.124364
0.783380 0.569720 0.124364
0.842940 0.569294 0.124364
0.898759 0.566458 0.124364
-0.364227 0.654480 -0.344211
-0.362223 0.654394 -0.345299
-0.353055 0.653963 -0.349483
-0.323405 0.652578 -0.346063
-0.267843 0.650436 -0.341036
-0.131081 0.647346 -0.330792
0.250970 0.643722 -0.317076
0.365810 0.639409 -0.295510
0.454468 0.634945 -0.263209
0.529756 0.631011 -0.214640
0.595872 0.628183 -0.136789
0.660884 0.631355 0.101013
0.723035 0.633341 0.124364
0.783380 0.633230 0.124364
0.842940 0.632719 0.124364
0.898759 0.629592 0.124364
-0.403104 0.724499 -0.385653
-0.401367 0.724322 -0.386621
-0.392875 0.723878 -0.389783
-0.367283 0.722569 -0.386752
-0.321234 0.720719 -0.382176
-0.234814 0.718277 -0.375256
0.171588 0.714884 -0.363695
0.330347 0.710819 -0.346900
0.434026 0.706444 -0.322555
0.519319 0.701995 -0.287663
0.593458 0.698090 -0.237053
0.660173 0.696031 -0.161303
0.723518 0.697113 0.081937
0.783381 0.696793 0.124328
0.842940 0.696332 0.124364
0.898759 0.692803 0.124364
-0.441147 0.792889 -0.425758
-0.439584 0.792837 -0.426593
-0.432546 0.792432 -0.429849
-0.410456 0.791400 -0.427504
-0.371003 0.789605 -0.423046
-0.304747 0.787436 -0.417615
-0.153401 0.784280 -0.407426
0.276789 0.780523 -0.393817
0.403330 0.776373 -0.374573
0.500234 0.771945 -0.347692
0.582829 0.767631 -0.310728
0.655984 0.763899 -0.260331
0.722731 0.761933 -0.185257
0.783873 0.760405 0.036920
0.842974 0.759640 0.123059
0.898759 0.755840 0.124364
-0.478638 0.860344 -0.464883
-0.477242 0.860295 -0.465667
-0.470595 0.859876 -0.468198
-0.450402 0.858851 -0.465493
-0.417455 0.857416 -0.462800
-0.361461 0.855291 -0.456974
-0.263030 0.852598 -0.449217
0.184374 0.849246 -0.437909
0.360097 0.845253 -0.422170
0.472517 0.840970 -0.400703
0.564785 0.836462 -0.371245
0.645585 0.832202 -0.330558
0.717472 0.828554 -0.279538
0.783364 0.825904 -0.205616
0.843629 0.823448 -0.082225
0.898873 0.819074 0.119310
-0.514724 0.925339 -0.502380
-0.513426 0.925234 -0.503069
-0.507061 0.924819 -0.504901
-0.490887 0.924168 -0.504287
-0.459752 0.922616 -0.499837
-0.412994 0.920789 -0.495553
-0.336217 0.918264 -0.488719
-0.173542 0.915178 -0.479120
0.298025 0.911594 -0.465950
0.434820 0.907447 -0.448242
0.539053 0.902942 -0.423232
0.627276 0.898625 -0.392982
0.705868 0.894440 -0.352019
0.777204 0.890838 -0.298394
0.842629 0.888296 -0.225711
0.899425 0.882425 -0.113527
-0.548704 0.986493 -0.537582
-0.547535 0.986390 -0.538177
-0.542596 0.986250 -0.540629
-0.526636 0.985406 -0.538636
-0.500778 0.984251 -0.536388
-0.458176 0.982262 -0.530746
-0.395696 0.980153 -0.525521
-0.287592 0.977310 -0.517218
0.193089 0.973987 -0.506014
0.383761 0.970154 -0.491164
0.502266 0.966144 -0.473363
0.600414 0.961716 -0.447707
0.686196 0.957254 -0.413478
0.763291 0.953124 -0.370171
0.833372 0.949645 -0.316358
0.898369 0.947109 -0.244100
0.065195 0.068913 0.181508
0.078928 0.069029 0.180611
0.115723 0.069776 0.178194
0.161270 0.069916 0.178329
0.215870 0.069916 0.183346
0.274193 0.069916 0.187877
0.336262 0.069916 0.192540
0.399835 0.069916 0.196385
0.465271 0.069917 0.199939
0.531287 0.069917 0.202881
0.596020 0.069917 0.204789
0.660502 0.069917 0.206268
0.723035 0.069917 0.207011
0.783380 0.069917 0.207033
0.842940 0.069917 0.206962
0.898759 0.069917 0.206046
0.063864 0.082616 0.182346
0.076338 0.080640 0.181453
0.115030 0.081214 0.178452
0.161259 0.081415 0.178332
0.215870 0.081415 0.182774
0.274193 0.081415 0.186890
0.336262 0.081416 0.191165
0.399835 0.081416 0.194709
0.465271 0.081416 0.198024
0.531287 0.081416 0.200735
0.596020 0.081416 0.202535
0.660502 0.081416 0.203900
0.723035 0.081416 0.204593
0.783380 0.081416 0.204592
0.842940 0.081416 0.204511
0.898759 0.081416 0.203635
0.049477 0.122079 0.185464
0.067528 0.121072 0.184780
0.111646 0.117915 0.181093
0.161259 0.118260 0.178332
0.215870 0.118268 0.180819
0.274193 0.118268 0.183341
0.336262 0.118268 0.186139
0.399835 0.118268 0.188475
0.465271 0.118268 0.190709
0.531287 0.118268 0.192559
0.596020 0.118268 0.193747
0.660502 0.118268 0.194661
0.723035 0.118268 0.195123
0.783380 0.118268 0.195094
0.842940 0.118268 0.194983
0.898759 0.118268 0.194348
-0.079164 0.173925 0.185378
-0.064661 0.173645 0.185109
0.086410 0.172297 0.183759
0.158359 0.168491 0.178974
0.215870 0.169234 0.177966
0.274193 0.169234 0.177966
0.336262 0.169234 0.177966
0.399835 0.169234 0.177966
0.465271 0.169234 0.177966
0.531287 0.169235 0.177966
0.596020 0.169235 0.177966
0.660502 0.169235 0.177966
0.723035 0.169235 0.177966
0.783380 0.169235 0.177966
0.842940 0.169235 0.177966
0.898759 0.169235 0.177966
-0.137148 0.237449 0.172350
-0.130795 0.237253 0.171093
-0.090580 0.236227 0.166566
0.127165 0.233412 0.157960
0.215445 0.227607 0.173059
0.274193 0.229203 0.177966
0.336262 0.231942 0.177966
0.399835 0.234180 0.177966
0.465271 0.236379 0.177966
0.531287 0.238194 0.177966
0.596020 0.239341 0.177966
0.660502 0.240217 0.177966
0.723035 0.240599 0.177966
0.783380 0.240502 0.177966
0.842940 0.240339 0.177966
0.898759 0.239596 0.177966
-0.176793 0.302805 0.139699
-0.172009 0.302614 0.137344
-0.145865 0.301655 0.129230
0.055194 0.299118 0.116027
0.201257 0.293909 0.137647
0.274871 0.289965 0.168147
0.336262 0.293110 0.177966
0.399835 0.297049 0.177966
0.465271 0.300813 0.177966
0.531287 0.303950 0.177966
0.596020 0.305908 0.177966
0.660502 0.307435 0.177966
0.723035 0.308069 0.177966
0.783380 0.307899 0.177966
0.842940 0.307621 0.177966
0.898759 0.306350 0.177966
-0.214284 0.370307 0.049560
-0.210443 0.370157 0.035191
