CameraAppSwiftUI/LUTs/teal_orange.cube
LUT_3D_SIZE 6
0.065805 0.070008 0.074371
0.160339 0.069916 0.073520
0.336262 0.069916 0.073520
0.531287 0.069917 0.073521
0.723035 0.069917 0.073521
0.898759 0.069917 0.073521
-0.075391 0.175989 -0.065721
0.161148 0.169933 0.062050
0.336262 0.183082 0.073520
0.531287 0.192913 0.073521
0.723035 0.196850 0.073521
0.898759 0.195941 0.073521
-0.198143 0.368755 -0.195860
0.017036 0.364786 -0.184366
0.336104 0.354355 -0.073590
0.531287 0.374158 0.073521
0.723035 0.382407 0.073521
0.898759 0.380484 0.073521
-0.320519 0.582931 -0.319361
-0.264935 0.580495 -0.313609
0.300827 0.570879 -0.278088
0.531071 0.559839 -0.144290
0.723035 0.571083 0.073521
0.898759 0.568196 0.073521
-0.438332 0.792584 -0.437582
-0.403013 0.790963 -0.433858
-0.127631 0.783872 -0.414070
0.502495 0.771757 -0.355826
0.722758 0.761918 -0.204526
0.898759 0.756523 0.073525
-0.546613 0.986253 -0.546094
-0.521458 0.985002 -0.543314
-0.388968 0.979830 -0.530333
0.388855 0.969943 -0.496225
0.687627 0.956980 -0.418444
0.898383 0.947111 -0.258277
0.065195 0.068913 0.181508
0.161270 0.069916 0.178329
0.336262 0.069916 0.192540
0.531287 0.069917 0.202881
0.723035 0.069917 0.207011
0.898759 0.069917 0.206046
-0.079164 0.173925 0.185378
0.158359 0.168491 0.178974
0.336262 0.169234 0.177966
0.531287 0.169235 0.177966
0.723035 0.169235 0.177966
0.898759 0.169235 0.177966
-0.214284 0.370307 0.049560
-0.131190 0.367190 -0.088266
0.335966 0.354335 0.160287
0.531287 0.368387 0.177966
0.723035 0.373959 0.177966
0.898759 0.371658 0.177966
-0.331070 0.584070 -0.266811
-0.292169 0.582059 -0.281029
0.285898 0.571837 -0.240947
0.530987 0.559887 0.106860
0.723035 0.568159 0.177966
0.898759 0.564247 0.177966
-0.445689 0.793447 -0.404816
-0.421238 0.792152 -0.414677
-0.182947 0.784869 -0.393750
0.496877 0.772260 -0.331041
0.722690 0.761917 -0.133748
0.898759 0.754911 0.177967
-0.552018 0.986883 -0.522978
-0.532877 0.985721 -0.528208
-0.405101 0.980660 -0.515850
0.376245 0.970541 -0.480934
0.684829 0.957244 -0.399055
0.898344 0.947104 -0.213393
0.058976 0.063200 0.379554
0.174511 0.066277 0.374759
0.336262 0.069916 0.371829
0.531287 0.069917 0.393494
0.723035 0.069917 0.402082
0.898759 0.069917 0.400074
-0.037812 0.182022 0.384587
0.157720 0.166618 0.379132
0.336262 0.169234 0.371829
0.531287 0.169235 0.387406
0.723035 0.169235 0.393245
0.898759 0.169235 0.390824
-0.207528 0.364505 0.388384
-0.137125 0.362879 0.386770
0.332813 0.354097 0.376128
0.531287 0.353599 0.371829
0.723035 0.353599 0.371829
0.898759 0.353599 0.371829
-0.361262 0.586050 0.328056
-0.331765 0.584913 0.314851
0.198868 0.577137 0.284614
0.530484 0.559878 0.355170
0.723035 0.561401 0.371829
0.898759 0.556422 0.371829
-0.472446 0.796006 -0.117294
-0.450533 0.794836 -0.163693
-0.292689 0.788920 -0.213481
0.475790 0.774389 0.121211
0.722347 0.761878 0.331919
0.898759 0.751879 0.371829
-0.573247 0.989155 -0.395121
-0.556368 0.988252 -0.405026
-0.452325 0.983527 -0.415192
0.329757 0.972902 -0.373173
0.676121 0.958352 -0.245288
0.898235 0.947069 0.296965
0.037794 0.045064 0.599788
0.181944 0.048593 0.596831
0.356098 0.067911 0.588171
0.531287 0.069917 0.587540
0.723035 0.069917 0.600561
0.898759 0.069917 0.597499
-0.053546 0.188281 0.602881
0.153556 0.162741 0.599597
0.350711 0.168060 0.588948
0.531287 0.169235 0.587540
0.723035 0.169235 0.597473
0.898759 0.169235 0.593341
-0.163256 0.375927 0.614543
0.057575 0.369037 0.611940
0.333450 0.352131 0.598295
0.531287 0.353599 0.587540
0.723035 0.353599 0.590354
0.898759 0.353599 0.585152
-0.335634 0.576161 0.613916
-0.305937 0.575283 0.613024
0.204451 0.570492 0.608309
0.525849 0.559469 0.594298
0.723035 0.558751 0.587540
0.898759 0.558751 0.587540
-0.499428 0.795958 0.557124
-0.482322 0.795405 0.550957
-0.363759 0.791677 0.533734
0.418573 0.780802 0.521731
0.721279 0.761991 0.570739
0.898759 0.752817 0.587540
-0.605695 0.991570 0.419325
-0.591574 0.991001 0.408839
-0.503346 0.987317 0.387406
0.219384 0.977909 0.399474
0.660541 0.961127 0.459536
0.897634 0.947050 0.555481
-0.051712 -0.045941 0.815440
0.180894 -0.039983 0.812884
0.364201 0.037614 0.805162
0.542499 0.069917 0.798781
0.723035 0.069917 0.799564
0.898759 0.069917 0.795505
-0.075447 0.186859 0.817570
0.146601 0.156350 0.815107
0.355942 0.161554 0.806483
0.539759 0.169227 0.798786
0.723035 0.169235 0.799564
0.898759 0.169235 0.793916
-0.148931 0.379594 0.826467
0.084423 0.370525 0.824410
0.331221 0.349924 0.814434
0.533751 0.353084 0.799892
0.723035 0.353599 0.799564
0.898759 0.353599 0.790768
-0.277141 0.576505 0.839639
-0.235901 0.572777 0.838250
0.275400 0.563081 0.831582
0.527673 0.557390 0.812501
0.723035 0.558751 0.799564
0.898759 0.558751 0.791623
-0.458981 0.783375 0.834664
-0.440973 0.782866 0.834221
-0.308181 0.779708 0.831079
0.433065 0.772183 0.823504
0.714942 0.760573 0.807945
0.898759 0.759557 0.798781
-0.622436 0.988864 0.770253
-0.610339 0.988508 0.766993
-0.535194 0.986058 0.758207
-0.203293 0.979725 0.750084
0.619263 0.967532 0.748859
0.895335 0.947467 0.781010
-0.081121 -0.078208 1.014652
0.172865 -0.075573 1.012760
0.361570 -0.063321 1.006514
0.541328 0.044561 0.997308
0.719393 0.069917 0.993872
0.898759 0.069917 0.993872
-0.095356 0.178822 1.016202
0.136400 0.147090 1.014389
0.352324 0.152135 1.007749
0.537600 0.162678 0.997906
0.717873 0.169235 0.993872
0.898759 0.169235 0.993872
-0.147892 0.374580 1.022826
0.081797 0.365264 1.020922
0.328102 0.346996 1.013940
0.530032 0.349961 1.001202
0.714951 0.353599 0.993872
0.898759 0.353599 0.993872
-0.243386 0.568453 1.035140
-0.196174 0.563942 1.033834
0.291346 0.554655 1.027413
0.526316 0.555812 1.012509
0.716191 0.558273 0.995332
0.898759 0.558751 0.993872
-0.387422 0.767315 1.046931
-0.363694 0.765243 1.046338
-0.143362 0.759694 1.042130
0.480161 0.755769 1.031501
0.717767 0.758462 1.010041
0.898759 0.759557 0.993872
-0.572373 0.974812 1.038632
-0.559283 0.974451 1.038288
-0.474493 0.972100 1.036027
0.220398 0.966536 1.030581
0.641268 0.957498 1.021147
0.889557 0.946446 1.005356
